X:500
T:Polska # 500
T: efter Melker Andersson
Q: 110
M:3/4
L:1/16
K: G
G2B2 B2GB d2B2| G3B d2g2 b4| b2a2 a2d2 f2a2| a2(fa) g2e2 d2B2| G2B2 BGB2 d2B2|
G3B d2g2b4| b2a2 a2d2 f2a2| a2fa g8:: g3g g2fg a3a| g3g e2ge c4|
c2ed c2ed c2ed| c3e (ga)ge d4| g3g g2fg b3b| g3g e2ge c4| B2dB A2cA G3B|
(Ac)AF F2G2 G4 :|

